X:1
T:Howard (Cuthbert), CM
T:Elizabeth H. Cuthbert, 1814
T:Howard (Cuthbert), CM
T:Public Domain
C:Elizabeth H. Cuthbert, 1814
Z:Public Domain
%%score ( 1 2 ) ( 3 4 )
L:1/8
M:3/4
K:C
V:1 treble 
V:2 treble 
V:3 bass 
V:4 bass 
V:1
 ([CE]>[DF]) | [EG]4 [FA]2 | [EG]4 [Gc]2 | ([FA]2 [EG]2) [DF]2 | ([DF]2 [CE]2) [CE]2 | %5
 [B,D]4 [DG]2 | ([EA]2 [DG]2) [D^F]2 | [DG]4 [DG]2 x | [Gc]4 [Gd]2 | ([Ge]2 [Fd]2) [Ec]2 | %10
 ([Ec]2 [GB]2) [FA]2 | [EG]4 ([Ec]>[FA]) | (E>F G2) [CA]2 | ([CG]>[DF] [CE]2) [B,D]2 | C4 |] %15
V:2
 x2 | x6 | x6 | x6 | x6 | x6 | x6 | x7 | x6 | x6 | x6 | x6 | G4 x2 | x6 | C4 |] %15
V:3
 [C,G,]2 | (G,3 C) [C,C]2 | [C,C]4 [E,C]2 | ([F,C]2 G,2) [G,,G,]2 | [C,G,]4 [C,G,]2 | G,4 [B,,D]2 | %6
 ([C,C]2 [D,B,]2) [D,A,]2 | [G,,B,]4 (G,>F,) x | [E,C]4 [D,B,]2 | (C2 G,2) [C,G,]2 | %10
 [C,G,]4 [C,C]2 | [C,C]4 [C,C]2 | (C,>D, E,2) [F,C]2 | ([E,C]>[F,A,] G,2) [G,,F,]2 | [C,E,]4 |] %15
V:4
 x2 | C,4 x2 | x6 | x2 G,2 x2 | x6 | G,4 x2 | x6 | x4 B,3 | x6 | C,4 x2 | x6 | x6 | C4 x2 | %13
 x2 G,2 x2 | x4 |] %15

